local/share/icons/dracula-icons-main/scalable/mimetypes/application-x-deb.svg

<?xml version="1.0" encoding="UTF-8"?>
<svg xmlns="http://www.w3.org/2000/svg" xmlns:xlink="http://www.w3.org/1999/xlink" width="64" height="64" viewBox="0 0 64 64">
<defs>
<filter id="filter-remove-color" x="0%" y="0%" width="100%" height="100%">
<feColorMatrix color-interpolation-filters="sRGB" values="0 0 0 0 1 0 0 0 0 1 0 0 0 0 1 0 0 0 1 0" />
</filter>
<mask id="mask-0">
<g filter="url(#filter-remove-color)">
<rect x="-6.4" y="-6.4" width="76.8" height="76.8" fill="rgb(0%, 0%, 0%)" fill-opacity="0.15"/>
</g>
</mask>
<linearGradient id="linear-pattern-0" gradientUnits="userSpaceOnUse" x1="49.570999" y1="52.714001" x2="51.714001" y2="54.856998" gradientTransform="matrix(2.3333, 0, 0, 2.3333, -68.667999, -72.000999)">
<stop offset="0" stop-color="rgb(0%, 0%, 0%)" stop-opacity="1"/>
<stop offset="1" stop-color="rgb(0%, 0%, 0%)" stop-opacity="0"/>
</linearGradient>
<clipPath id="clip-0">
<rect x="0" y="0" width="64" height="64"/>
</clipPath>
<g id="source-4111" clip-path="url(#clip-0)">
<path fill-rule="evenodd" fill="url(#linear-pattern-0)" d="M 56 46.003906 L 42 60.003906 L 51 60.003906 C 53.769531 60.003906 56 57.773438 56 55.003906 Z M 56 46.003906 "/>
</g>
</defs>
<path fill-rule="nonzero" fill="rgb(97.254902%, 34.509804%, 47.45098%)" fill-opacity="1" d="M 13 4 L 51 4 C 53.761719 4 56 6.238281 56 9 L 56 55 C 56 57.761719 53.761719 60 51 60 L 13 60 C 10.238281 60 8 57.761719 8 55 L 8 9 C 8 6.238281 10.238281 4 13 4 Z M 13 4 "/>
<g mask="url(#mask-0)">
<use xlink:href="#source-4111"/>
</g>
<path fill-rule="nonzero" fill="rgb(100%, 100%, 100%)" fill-opacity="1" d="M 30.003906 25 L 30.003906 31.5 C 30.003906 31.777344 30.226562 32 30.503906 32 L 33.503906 32 C 33.777344 32 34.003906 31.777344 34.003906 31.5 L 34.003906 25 Z M 31.003906 29 L 33.003906 29 L 33.003906 31 L 31.003906 31 Z M 31.003906 29 "/>
<path fill-rule="nonzero" fill="rgb(100%, 100%, 100%)" fill-opacity="1" d="M 32.003906 4 L 30.003906 4 L 30.003906 6 L 32.003906 6 Z M 32.003906 6 L 32.003906 8 L 34.003906 8 L 34.003906 6 Z M 32.003906 8 L 30.003906 8 L 30.003906 10 L 32.003906 10 Z M 32.003906 10 L 32.003906 12 L 34.003906 12 L 34.003906 10 Z M 32.003906 12 L 30.003906 12 L 30.003906 14 L 32.003906 14 Z M 32.003906 14 L 32.003906 16 L 34.003906 16 L 34.003906 14 Z M 32.003906 16 L 30.003906 16 L 30.003906 18 L 32.003906 18 Z M 32.003906 18 L 32.003906 20 L 34.003906 20 L 34.003906 18 Z M 32.003906 20 L 30.003906 20 L 30.003906 22 L 32.003906 22 Z M 32.003906 22 L 32.003906 24 L 34.003906 24 L 34.003906 22 Z M 32.003906 22 "/>
<path fill-rule="nonzero" fill="rgb(84.313725%, 2.745098%, 31.764706%)" fill-opacity="1" d="M 25.355469 34.800781 C 24.664062 34.855469 23.976562 34.894531 23.300781 34.980469 L 23.597656 35.019531 C 24.09375 34.835938 24.824219 34.917969 25.355469 34.800781 Z M 22.34375 35.113281 C 21.222656 35.179688 19.664062 35.765625 20.144531 35.234375 C 18.316406 36.050781 15.070312 37.199219 13.25 38.910156 L 13.191406 38.523438 C 12.355469 39.527344 9.550781 41.511719 9.328125 42.8125 L 9.101562 42.867188 C 8.667969 43.601562 8.382812 44.4375 8.039062 45.195312 C 8.027344 45.21875 8.015625 45.230469 8 45.253906 L 8 51.246094 C 8.300781 50.425781 8.949219 49.496094 9.472656 48.1875 L 9.078125 48.117188 C 9.835938 46.789062 13.417969 42.78125 15.078125 42.988281 C 15.878906 41.980469 14.917969 42.984375 14.761719 42.734375 C 16.527344 40.90625 17.082031 41.441406 18.273438 41.113281 C 19.558594 40.351562 17.175781 41.410156 17.785156 40.824219 C 20.007812 40.253906 19.355469 39.535156 22.253906 39.246094 C 22.558594 39.421875 21.546875 39.515625 21.292969 39.742188 C 23.140625 38.835938 27.144531 39.039062 29.75 40.242188 C 32.769531 41.652344 36.160156 45.824219 36.296875 49.75 L 36.453125 49.792969 C 36.375 51.351562 36.6875 53.15625 36.140625 54.8125 L 36.511719 54.027344 C 36.554688 55.21875 36.164062 55.796875 35.808594 56.820312 L 35.171875 57.140625 C 34.652344 58.15625 35.21875 57.785156 34.847656 58.589844 C 34.441406 58.949219 33.832031 59.507812 33.253906 60 L 35.527344 60 C 35.828125 59.707031 36.082031 59.476562 36.195312 59.46875 C 35.910156 59.898438 36.070312 59.855469 36.066406 60 L 36.109375 60 C 36.585938 59.074219 35.703125 59.585938 36.8125 57.972656 L 37.261719 58.589844 C 37.09375 57.484375 38.632812 56.140625 38.476562 54.390625 C 38.832031 53.855469 38.875 54.96875 38.5 56.199219 C 39.019531 54.832031 38.636719 54.613281 38.769531 53.488281 C 38.910156 53.867188 39.101562 54.269531 39.199219 54.667969 C 38.859375 53.347656 39.546875 52.441406 39.71875 51.675781 C 39.546875 51.601562 39.195312 52.257812 39.113281 50.699219 C 39.125 50.023438 39.300781 50.347656 39.367188 50.183594 C 39.234375 50.105469 38.886719 49.582031 38.675781 48.585938 C 38.828125 48.351562 39.089844 49.191406 39.300781 49.226562 C 39.164062 48.433594 38.929688 47.832031 38.921875 47.226562 C 38.308594 45.945312 38.703125 47.398438 38.210938 46.679688 C 37.558594 44.648438 38.746094 46.210938 38.828125 45.289062 C 39.8125 46.714844 40.378906 48.933594 40.636719 49.851562 C 40.441406 48.730469 40.117188 47.644531 39.730469 46.597656 C 40.03125 46.722656 39.253906 44.296875 40.125 45.90625 C 39.191406 42.476562 36.136719 39.269531 33.328125 37.769531 C 33.667969 38.082031 34.097656 38.480469 33.945312 38.542969 C 32.546875 37.710938 32.792969 37.640625 32.59375 37.292969 C 31.457031 36.828125 31.378906 37.328125 30.628906 37.292969 C 28.480469 36.152344 28.070312 36.273438 26.09375 35.5625 L 26.179688 35.980469 C 24.757812 35.507812 24.523438 36.15625 22.988281 35.980469 C 22.894531 35.910156 23.480469 35.71875 23.964844 35.652344 C 22.589844 35.832031 22.65625 35.375 21.308594 35.695312 C 21.640625 35.464844 21.992188 35.308594 22.34375 35.113281 Z M 23.453125 35.371094 C 23.84375 35.4375 24.300781 35.496094 24.238281 35.589844 C 24.667969 35.496094 24.765625 35.40625 23.453125 35.371094 Z M 24.238281 35.589844 L 23.964844 35.648438 L 24.21875 35.625 Z M 25.222656 47.070312 C 23.039062 47.105469 20.996094 48.488281 20.316406 49.996094 C 19.199219 50.699219 19.066406 52.707031 18.582031 53.074219 C 18.140625 56.300781 18.863281 58.292969 20.335938 60 L 22.058594 60 C 20.71875 58.636719 19.824219 56.785156 19.855469 54.703125 C 19.808594 55.035156 19.730469 54.953125 19.640625 55.085938 C 19.425781 52.398438 20.886719 49.699219 23.339844 48.59375 C 25.742188 47.40625 28.554688 47.890625 30.273438 49.496094 C 29.328125 48.257812 27.449219 46.949219 25.222656 47.070312 Z M 31.558594 52.636719 C 31.464844 52.640625 31.347656 52.867188 31.289062 53.121094 C 31.425781 53.191406 31.535156 54.058594 31.667969 53.523438 C 31.714844 52.859375 31.648438 52.636719 31.558594 52.636719 Z M 39.617188 54.871094 L 39.515625 55.144531 C 39.316406 56.554688 38.882812 57.953125 38.226562 59.25 C 38.953125 57.882812 39.417969 56.386719 39.617188 54.871094 Z M 31.082031 55.371094 C 30.980469 55.859375 30.714844 56.28125 30.464844 56.726562 C 29.085938 57.59375 30.332031 56.214844 30.464844 55.6875 C 28.980469 57.554688 30.261719 56.804688 30.207031 57.328125 C 30.648438 56.71875 30.96875 56.058594 31.082031 55.371094 Z M 28.074219 58.21875 C 27.472656 58.363281 26.867188 58.367188 26.25 58.3125 C 25.511719 58.320312 26.386719 58.691406 27.351562 58.839844 C 27.617188 58.632812 27.855469 58.421875 28.074219 58.21875 Z M 18.765625 58.316406 C 18.929688 58.914062 19.265625 59.421875 19.574219 59.945312 L 19.34375 59.277344 C 19.085938 58.992188 18.9375 58.65625 18.765625 58.316406 Z M 18.203125 59.324219 L 18.097656 59.84375 C 18.132812 59.894531 18.167969 59.945312 18.207031 60 L 18.589844 60 C 18.460938 59.78125 18.359375 59.625 18.203125 59.324219 Z M 18.203125 59.324219 "/>
</svg>

<svg width="64" height="64" version="1.1" viewBox="0 0 64 64" xmlns="http://www.w3.org/2000/svg">
 <defs>
  <linearGradient id="a" x1="49.571" x2="51.714" y1="52.714" y2="54.857" gradientTransform="matrix(2.3333 0 0 2.3333 -68.668 -72.001)" gradientUnits="userSpaceOnUse">
   <stop offset="0"/>
   <stop stop-opacity="0" offset="1"/>
  </linearGradient>
 </defs>
 <rect x="7.9999" y="4" width="48.001" height="55.999" ry="5" fill="#f85879" style="paint-order:stroke fill markers"/>
 <path d="m55.999 46.002-14 14h9c2.77 0 5-2.23 5-5z" fill="url(#a)" fill-rule="evenodd" opacity=".15" stroke-width="8.8193" style="paint-order:stroke fill markers"/>
 <path d="m30.002 25v6.5002c0 0.277 0.223 0.5 0.5 0.5h3c0.27701 0 0.5-0.223 0.5-0.5v-6.5002zm1 4h2v2h-2z" color="#000000" fill="#fff" stroke-width="3.7796"/>
 <path d="m32.002 4h-2v2h2zm0 2v2h2v-2zm0 2h-2v2h2zm0 2v2h2v-2zm0 2h-2v2h2zm0 2v2h2v-2zm0 2h-2v2h2zm0 2v2h2v-2zm0 2h-2v2h2zm0 2v2h2v-2z" color="#000000" fill="#fff" stroke-width="3.7796"/>
 <path d="m25.354 34.799c-0.6899 0.05743-1.3772 0.09387-2.0547 0.17969l0.29688 0.04102c0.49799-0.18211 1.2278-0.10088 1.7578-0.2207zm-3.0098 0.31445c-1.1208 0.06757-2.6794 0.65311-2.1992 0.12109-1.8285 0.81627-5.0739 1.9648-6.8965 3.6738l-0.05859-0.38476c-0.83509 1.0023-3.6397 2.9896-3.8633 4.2891l-0.22656 0.05273c-0.43384 0.73586-0.71608 1.5716-1.0605 2.3281-0.014093 0.02403-0.025344 0.03645-0.039062 0.05859v5.9941c0.30021-0.8219 0.94987-1.7497 1.4727-3.0605l-0.39648-0.07031c0.76099-1.3265 4.3399-5.3323 6-5.127 0.80401-1.0097-0.15705-0.0021-0.31445-0.25586 1.7663-1.8275 2.3179-1.29 3.5098-1.6191 1.2846-0.76256-1.0972 0.29773-0.48828-0.29102 2.2223-0.56704 1.5703-1.2884 4.4688-1.5762 0.30598 0.17379-0.7063 0.26855-0.96095 0.49414 1.8507-0.90614 5.8533-0.70176 8.4571 0.5 3.0189 1.4119 6.4126 5.5848 6.5469 9.5099l0.15625 0.04102c-0.07658 1.5604 0.23584 3.3642-0.3125 5.0215l0.37109-0.78516c0.04392 1.1923-0.34828 1.7685-0.70312 2.793l-0.63477 0.32031c-0.52167 1.0137 0.04737 0.64332-0.32617 1.4492-0.40421 0.35897-1.015 0.91842-1.5918 1.4082h2.2734c0.30196-0.29251 0.55329-0.52279 0.66797-0.5293-0.28559 0.42965-0.1267 0.38839-0.13086 0.5293h0.04297c0.47622-0.92521-0.40688-0.41366 0.70508-2.0254l0.44922 0.61719c-0.16782-1.1075 1.3718-2.4511 1.2148-4.2012 0.35385-0.53494 0.39842 0.57962 0.02344 1.8105 0.52064-1.3656 0.13435-1.5857 0.26758-2.7129 0.14359 0.37896 0.33443 0.7814 0.43164 1.1816-0.33956-1.3201 0.34685-2.2248 0.51758-2.9922-0.16884-0.07435-0.52358 0.58197-0.60547-0.97657 0.01247-0.67708 0.18817-0.35081 0.25586-0.51758-0.13221-0.07657-0.47971-0.60026-0.69142-1.5957 0.15247-0.23449 0.41381 0.60661 0.62305 0.64062-0.13467-0.79116-0.36911-1.3945-0.37891-2.002-0.612-1.2782-0.21555 0.17266-0.71094-0.54688-0.6515-2.0303 0.53619-0.46872 0.61719-1.3906 0.98609 1.4287 1.5515 3.645 1.8105 4.5625-0.19741-1.1188-0.51872-2.2051-0.90821-3.2539 0.30059 0.12681-0.47698-2.2994 0.39648-0.69142-0.93226-3.4274-3.9882-6.6345-6.7988-8.1368 0.34304 0.31432 0.77214 0.71128 0.61719 0.77345-1.3986-0.83159-1.1493-0.89864-1.3496-1.25-1.1376-0.46343-1.2142 0.03715-1.9668 0-2.147-1.139-2.5576-1.0159-4.5332-1.7285l0.08594 0.41797c-1.4218-0.47379-1.657 0.1776-3.1934 0-0.09347-0.07208 0.49386-0.26048 0.97657-0.33008-1.375 0.18166-1.3089-0.27571-2.6543 0.04492 0.33062-0.23211 0.68238-0.38525 1.0352-0.58203zm1.1074 0.25586c0.39382 0.06982 0.85085 0.12644 0.78516 0.2207 0.43234-0.09573 0.52955-0.1832-0.78516-0.2207zm0.78516 0.2207-0.27344 0.05859 0.25586-0.02344 0.01758-0.03516zm0.98439 11.479c-2.1819 0.03591-4.2252 1.4201-4.9062 2.9258-1.1173 0.7033-1.2477 2.7119-1.7344 3.0801-0.43951 3.2276 0.2826 5.2193 1.7559 6.9238h1.7207c-1.3374-1.3635-2.233-3.214-2.2031-5.2949-0.04392 0.33166-0.12405 0.2496-0.21484 0.38281-0.21215-2.6901 1.2473-5.3891 3.7012-6.4941 2.4001-1.1875 5.2137-0.70114 6.9316 0.90235-0.94363-1.2368-2.8245-2.5472-5.0508-2.4258zm6.3359 5.5684c-0.0912 0.0023-0.20862 0.22946-0.26758 0.48242 0.1372 0.07208 0.24624 0.9373 0.37891 0.40234 0.04505-0.664-0.02001-0.88703-0.11133-0.88477zm8.0606 2.2344-0.10352 0.27344c-0.19847 1.4104-0.62982 2.8091-1.2871 4.1035 0.7265-1.3656 1.1917-2.8634 1.3906-4.377zm-8.5372 0.5c-0.0991 0.48854-0.36651 0.90939-0.61719 1.3555-1.3785 0.86807-0.12934-0.51441 0-1.041-1.4815 1.867-0.20158 1.1191-0.25586 1.6406 0.44069-0.60657 0.76008-1.2691 0.87306-1.9551zm-3.0078 2.8457c-0.59868 0.14654-1.2074 0.14882-1.8223 0.09375-0.73733 0.0098 0.1367 0.38075 1.0996 0.5293 0.26701-0.20822 0.50744-0.41865 0.72267-0.62305zm-9.3067 0.09961c0.16284 0.59767 0.49913 1.1058 0.8086 1.6289l-0.23242-0.66798c-0.25667-0.28426-0.40546-0.62139-0.57617-0.96095zm-0.56446 1.0059-0.10547 0.51953c0.03809 0.05172 0.07235 0.10398 0.10938 0.15625h0.38281c-0.12618-0.21645-0.23059-0.37445-0.38672-0.67578z" fill="#d70751" stroke-width=".49352"/>
</svg>
